symbols/web/format_textdirection_r_to_l/materialsymbolsrounded/format_textdirection_r_to_l_wght600gradN25fill1_48px.svg

<svg xmlns="http://www.w3.org/2000/svg" height="48" width="48"><path d="m12.55 43.3-5.4-5.35q-.3-.3-.45-.625-.15-.325-.15-.725 0-.4.15-.725.15-.325.45-.625l5.35-5.4q.55-.5 1.25-.5t1.25.5q.55.6.55 1.3 0 .7-.55 1.2l-2.5 2.5h27.95q.75 0 1.25.525t.5 1.225q0 .75-.5 1.25t-1.25.5H12.5l2.5 2.5q.55.55.525 1.25-.025.7-.525 1.2-.55.55-1.25.55t-1.2-.55Zm9.95-13.4q-.75 0-1.275-.5-.525-.5-.525-1.25V18.9q-3.3-.05-5.625-2.225Q12.75 14.5 12.75 11.3q0-3.25 2.25-5.5t5.5-2.25h12.65q.7 0 1.225.525.525.525.525 1.225 0 .75-.525 1.25t-1.225.5h-2.7v21.1q0 .75-.55 1.25t-1.25.5q-.75 0-1.25-.5t-.5-1.25V7.05h-2.65v21.1q0 .75-.525 1.25t-1.225.5Z"/></svg>

<svg xmlns="http://www.w3.org/2000/svg" height="48" width="48"><path d="M12.55 43.3 7.15 37.95Q6.85 37.65 6.7 37.3Q6.55 36.95 6.55 36.6Q6.55 36.2 6.7 35.875Q6.85 35.55 7.15 35.25L12.55 29.85Q13.05 29.35 13.75 29.35Q14.45 29.35 15 29.85Q15.55 30.45 15.55 31.15Q15.55 31.85 15 32.35L12.5 34.85H40.45Q41.2 34.85 41.7 35.375Q42.2 35.9 42.2 36.6Q42.2 37.35 41.7 37.85Q41.2 38.35 40.45 38.35H12.5L15 40.85Q15.55 41.4 15.525 42.1Q15.5 42.8 15 43.3Q14.45 43.85 13.75 43.85Q13.05 43.85 12.55 43.3ZM22.5 29.9Q21.75 29.9 21.225 29.4Q20.7 28.9 20.7 28.15V18.9Q17.4 18.85 15.075 16.675Q12.75 14.5 12.75 11.3Q12.75 8.05 15 5.8Q17.25 3.55 20.5 3.55H33.15Q33.85 3.55 34.375 4.075Q34.9 4.6 34.9 5.3Q34.9 6.05 34.375 6.55Q33.85 7.05 33.15 7.05H30.45V28.15Q30.45 28.9 29.9 29.4Q29.35 29.9 28.65 29.9Q27.9 29.9 27.4 29.4Q26.9 28.9 26.9 28.15V7.05H24.25V28.15Q24.25 28.9 23.725 29.4Q23.2 29.9 22.5 29.9ZM20.7 15.45V7.05Q18.8 7.05 17.55 8.15Q16.3 9.25 16.3 11.25Q16.3 13.25 17.55 14.35Q18.8 15.45 20.7 15.45ZM20.7 15.4Q18.9 15.4 17.65 14.225Q16.4 13.05 16.4 11.25Q16.4 9.45 17.65 8.275Q18.9 7.1 20.7 7.1Z"/></svg>
